X:500
T: Cat in the Corner
S: "Johnny O'Leary of Sliabh Luachra" (#348)
Z: B.Black
L: 1/8
M: 12/8
R: slide
K: G
A|: BGG G2B ded d2c|BAB GBd e2f g3|
G/A/Bd gfe fdB cBA|BGE EDE c3 B/c/BA :|
BzE EDE GED D2A|BEE EDE c3 B/c/BA|
BGE EDE GED D2E|GBA GBA G3 G2A|
BEE EDE GED D2A|BEE EDE cdc B2A|
BGE EDE GED D2E|G/A/BA GBA G3 G2A ||
